images/facebook_color_white.svg

<svg width="16" height="16" viewBox="0 0 16 16" fill="none" xmlns="http://www.w3.org/2000/svg">
<path fill-rule="evenodd" clip-rule="evenodd" d="M8 0C3.58172 0 0 3.35786 0 7.5C0 11.6421 3.58172 15 8 15C12.4183 15 16 11.6421 16 7.5C16 3.35786 12.4183 0 8 0ZM8.83551 7.82944V11.9098H7.03468V7.8296H6.13499V6.42347H7.03468V5.57924C7.03468 4.43212 7.54271 3.75 8.98606 3.75H10.1877V5.15629H9.43658C8.87472 5.15629 8.83755 5.35279 8.83755 5.71953L8.83551 6.42331H10.1962L10.037 7.82944H8.83551Z" fill="#4F4F4F"/>
</svg>

<svg width="16" height="16" fill="none" xmlns="http://www.w3.org/2000/svg"><path fill-rule="evenodd" clip-rule="evenodd" d="M8 0C3.582 0 0 3.358 0 7.5 0 11.642 3.582 15 8 15s8-3.358 8-7.5C16 3.358 12.418 0 8 0zm.836 7.83v4.08H7.035V7.83h-.9V6.423h.9V5.58c0-1.147.508-1.829 1.951-1.829h1.202v1.406h-.751c-.562 0-.6.197-.6.564l-.001.703h1.36l-.159 1.406H8.836z" fill="#4F4F4F"/></svg>
